Sources/FrostedUI/Resources/Icons.xcassets/leaveReview16.imageset/leave-review-16.svg

<svg width="16" height="16" viewBox="0 0 16 16" fill="none" xmlns="http://www.w3.org/2000/svg" data-fui-icon="true">
  <path
    d="M6.97168 0.25061C7.38573 0.250808 7.72168 0.586519 7.72168 1.00061C7.72149 1.41454 7.38561 1.75041 6.97168 1.75061H4.97168C3.17675 1.75061 1.72168 3.20569 1.72168 5.00061V11.0006C1.72187 12.7954 3.17687 14.2506 4.97168 14.2506H10.9717C12.7663 14.2504 14.2215 12.7952 14.2217 11.0006V9.00061C14.2217 8.5864 14.5575 8.25061 14.9717 8.25061C15.3857 8.25081 15.7217 8.58652 15.7217 9.00061V11.0006C15.7215 13.6237 13.5947 15.7504 10.9717 15.7506H4.97168C2.34845 15.7506 0.221874 13.6238 0.22168 11.0006V5.00061C0.22168 2.37726 2.34833 0.25061 4.97168 0.25061H6.97168ZM11.2275 0.884399C12.3015 -0.189448 14.0423 -0.189511 15.1162 0.884399C16.19 1.95832 16.19 3.69917 15.1162 4.77307L11.0156 8.87366C10.5741 9.31499 9.99545 9.5928 9.375 9.66174L7.88379 9.82678C6.89683 9.93614 6.06326 9.10285 6.17285 8.11584L6.33789 6.62561C6.40683 6.00516 6.68562 5.42649 7.12695 4.98499L11.2275 0.884399ZM8.1875 6.04553C7.98712 6.24608 7.86051 6.5089 7.8291 6.79065L7.66309 8.28186C7.65977 8.31347 7.68713 8.34087 7.71875 8.33752L9.20996 8.17151C9.49172 8.1401 9.75453 8.01349 9.95508 7.81311L12.4395 5.32874L10.6719 3.56018L8.1875 6.04553ZM14.0557 1.94495C13.5675 1.45682 12.7762 1.45688 12.2881 1.94495L11.7324 2.49963L13.5 4.26819L14.0557 3.71252C14.5437 3.22441 14.5436 2.43308 14.0557 1.94495Z"
    fill="currentColor"
  />
</svg>

<svg xmlns="http://www.w3.org/2000/svg" width="16" height="16" fill="none" data-fui-icon="true" viewBox="0 0 16 16"><path fill="currentColor" d="M6.972.25a.75.75 0 0 1 0 1.5h-2A3.25 3.25 0 0 0 1.722 5v6a3.25 3.25 0 0 0 3.25 3.25h6a3.25 3.25 0 0 0 3.25-3.25V9a.75.75 0 0 1 1.5 0v2a4.75 4.75 0 0 1-4.75 4.75h-6A4.75 4.75 0 0 1 .222 11V5A4.75 4.75 0 0 1 4.972.25zm4.255.634a2.75 2.75 0 1 1 3.89 3.89l-4.101 4.1a2.75 2.75 0 0 1-1.641.788l-1.491.165a1.55 1.55 0 0 1-1.711-1.711l.165-1.49c.069-.62.348-1.2.789-1.641zm-3.04 5.162c-.2.2-.326.463-.358.745l-.166 1.49a.05.05 0 0 0 .056.057l1.491-.166a1.25 1.25 0 0 0 .745-.359L12.44 5.33 10.672 3.56zm5.869-4.101a1.25 1.25 0 0 0-1.768 0l-.556.555L13.5 4.268l.556-.555a1.25 1.25 0 0 0 0-1.768"/></svg>
